src/assets/woman.svg

<?xml version="1.0" encoding="UTF-8" standalone="no"?>
<svg
   width="144"
   height="144"
   viewBox="0 0 144 144"
   fill="none"
   version="1.1"
   id="svg1293"
   sodipodi:docname="woman.svg"
   inkscape:version="1.1 (c68e22c387, 2021-05-23)"
   xmlns:inkscape="http://www.inkscape.org/namespaces/inkscape"
   xmlns:sodipodi="http://sodipodi.sourceforge.net/DTD/sodipodi-0.dtd"
   xmlns="http://www.w3.org/2000/svg"
   xmlns:svg="http://www.w3.org/2000/svg">
  <sodipodi:namedview
     id="namedview1295"
     pagecolor="#505050"
     bordercolor="#ffffff"
     borderopacity="1"
     inkscape:pageshadow="0"
     inkscape:pageopacity="0"
     inkscape:pagecheckerboard="1"
     showgrid="false"
     inkscape:zoom="5.7777778"
     inkscape:cx="72.173077"
     inkscape:cy="72.086538"
     inkscape:window-width="1920"
     inkscape:window-height="1017"
     inkscape:window-x="1912"
     inkscape:window-y="-8"
     inkscape:window-maximized="1"
     inkscape:current-layer="svg1293" />
  <mask
     id="mask0"
     mask-type="alpha"
     maskUnits="userSpaceOnUse"
     x="4"
     y="4"
     width="137"
     height="137">
    <path
       fill-rule="evenodd"
       clip-rule="evenodd"
       d="M72.5 140C109.779 140 140 109.779 140 72.5C140 35.2208 109.779 5 72.5 5C35.2208 5 5 35.2208 5 72.5C5 109.779 35.2208 140 72.5 140Z"
       fill="white"
       stroke="#4A4A4A"
       id="path1223" />
  </mask>
  <g
     mask="url(#mask0)"
     id="g1264"
     transform="translate(0,4)">
    <path
       d="M 104.512,67.8 H 40.4877 c 0,0 -10.6708,44.7 0.9972,49.6 6.9809,3 12.7651,-0.9 31.0151,-0.9 18.25,0 24.0341,3.8 31.015,0.9 11.768,-4.9 0.997,-49.6 0.997,-49.6 z"
       fill="#3d2011"
       id="path1226" />
    <path
       d="M 83.2726,101.7 C 77.289,98.5999 78.386,94.2 78.386,94.2 H 66.6183 c 0,0 1.097,4.3999 -4.8866,7.5 -7.679,4 -15.8566,4.6 -12.4659,42.8 21.3415,0 25.1312,0 46.4727,0 3.3907,-38.2 -4.7869,-38.8 -12.4659,-42.8 z"
       fill="#fcd7b8"
       stroke="#000000"
       stroke-width="1.0195"
       stroke-miterlimit="10"
       id="path1228" />
    <path
       d="m 72.5022,11.7001 c -1.9946,-0.1 -29.4194,-0.6 -29.4194,33.1 0,40.9 4.2882,50.4 29.4194,50.4 25.1311,0 29.4198,-9.5 29.4198,-50.4 0,-33.7 -27.3256,-33.2 -29.4198,-33.1 z"
       fill="#fcd7b8"
       stroke="#000000"
       stroke-width="1.0195"
       stroke-miterlimit="10"
       id="path1230" />
    <path
       d="m 86.5632,55.7001 c 0.6981,-0.8 2.4932,-2.9 5.6845,0.5"
       stroke="#000000"
       stroke-width="1.0195"
       stroke-miterlimit="10"
       stroke-linecap="round"
       stroke-linejoin="round"
       id="path1232" />
    <path
       d="m 58.4391,55.7001 c -0.6981,-0.8 -2.4932,-2.9 -5.6845,0.5"
       stroke="#000000"
       stroke-width="1.0195"
       stroke-miterlimit="10"
       stroke-linecap="round"
       stroke-linejoin="round"
       id="path1234" />
    <path
       d="m 68.0125,78.1001 h 8.8756"
       stroke="#000000"
       stroke-width="1.0195"
       stroke-miterlimit="10"
       stroke-linecap="round"
       stroke-linejoin="round"
       id="path1236" />
    <path
       d="m 89.655,60.7 c -0.9973,0 -1.7951,0.7999 -2.2937,1.3999 -0.1995,0.3 -0.1995,0.6 0,0.9 0.3989,0.5 1.2964,1.4 2.2937,1.4 1.3962,0 2.5929,-1.8 2.5929,-1.8 0,0 -1.1967,-1.8999 -2.5929,-1.8999 z"
       fill="#61584f"
       stroke="#000000"
       stroke-width="0.5"
       stroke-miterlimit="10"
       stroke-linecap="round"
       stroke-linejoin="round"
       id="path1238" />
    <path
       d="m 89.7551,64.2999 c 0.771,0 1.3961,-0.8058 1.3961,-1.8 0,-0.9941 -0.6251,-1.7999 -1.3961,-1.7999 -0.7711,0 -1.3962,0.8058 -1.3962,1.7999 0,0.9942 0.6251,1.8 1.3962,1.8 z"
       fill="#000000"
       id="path1240" />
    <path
       d="m 88.8576,62.5 c 0.3305,0 0.5984,-0.2686 0.5984,-0.6 0,-0.3313 -0.2679,-0.6 -0.5984,-0.6 -0.3304,0 -0.5983,0.2687 -0.5983,0.6 0,0.3314 0.2679,0.6 0.5983,0.6 z"
       fill="#dddfe2"
       id="path1242" />
    <path
       d="m 55.2479,60.7 c 0.9973,0 1.7951,0.7999 2.2937,1.3999 0.1995,0.3 0.1995,0.6 0,0.9 -0.3989,0.5 -1.2964,1.4 -2.2937,1.4 -1.3962,0 -2.5929,-1.8 -2.5929,-1.8 0,0 1.1967,-1.8999 2.5929,-1.8999 z"
       fill="#61584f"
       stroke="#000000"
       stroke-width="0.5"
       stroke-miterlimit="10"
       stroke-linecap="round"
       stroke-linejoin="round"
       id="path1244" />
    <path
       d="m 55.1486,64.2999 c 0.7711,0 1.3962,-0.8058 1.3962,-1.8 0,-0.9941 -0.6251,-1.7999 -1.3962,-1.7999 -0.7711,0 -1.3962,0.8058 -1.3962,1.7999 0,0.9942 0.6251,1.8 1.3962,1.8 z"
       fill="#000000"
       id="path1246" />
    <path
       d="m 56.146,62.5 c 0.3304,0 0.5983,-0.2686 0.5983,-0.6 0,-0.3313 -0.2679,-0.6 -0.5983,-0.6 -0.3305,0 -0.5984,0.2687 -0.5984,0.6 0,0.3314 0.2679,0.6 0.5984,0.6 z"
       fill="#dddfe2"
       id="path1248" />
    <path
       d="m 71.903,10.5001 c -31.8129,-5.20001 -34.4057,41.3 -31.9126,49.7 1.2965,3.7 0.4987,7.6 0.4987,7.6 h 2.9918 c 0,0 -0.1995,-2.4 0.1994,-3.9 0.9973,-3.8 3.4904,-9.8 9.0751,-19.4 11.9673,-20.4 19.5465,-22.3 18.9481,-24.6 -0.6981,-2.2 0.8976,-7.2 0.8976,-7.2 1.097,1.8 -0.4987,6.1 1.7951,8.6 22.8374,25 26.9258,42.8 27.0258,43.2 0.1,0.5 0.299,3.2 0.299,3.2 h 2.992 c 0,0 1.396,-5.3 1.297,-8.9 1.595,-57.20001 -34.107,-48.3 -34.107,-48.3 z"
       fill="#3d2011"
       id="path1250" />
    <path
       d="m 83.2709,101.7 c -0.0997,0 -0.0997,-0.1 -0.1994,-0.1 -1.7951,3.5 -5.8839,6 -10.6708,6 -4.7869,0 -8.8757,-2.5 -10.6708,-6 -0.0997,0 -0.0997,0.1 -0.1994,0.1 -7.679,4 -15.8566,4.6 -12.4659,42.8 21.3416,0 25.1312,0 46.4727,0 3.5902,-38.2 -4.5874,-38.8 -12.2664,-42.8 z"
       fill="#b2c7c7"
       stroke="#000000"
       stroke-width="1.0195"
       stroke-miterlimit="10"
       id="path1252" />
    <path
       d="m 88.2578,117.4 c -0.3989,5 -0.8976,12.5 -0.9973,27.1"
       stroke="#000000"
       stroke-width="1.0195"
       stroke-miterlimit="10"
       stroke-linecap="round"
       stroke-linejoin="round"
       id="path1254" />
    <path
       d="m 56.7449,117.4 c 0.3989,5 0.8975,12.5 0.9972,27.1"
       stroke="#000000"
       stroke-width="1.0195"
       stroke-miterlimit="10"
       stroke-linecap="round"
       stroke-linejoin="round"
       id="path1256" />
    <path
       d="m 71.7028,61.3999 c -0.2992,2.9 -2.0943,6.6 0,7 2.0943,0.4 4.1885,0 4.1885,0"
       stroke="#000000"
       stroke-width="1.0195"
       stroke-miterlimit="10"
       stroke-linecap="round"
       stroke-linejoin="round"
       id="path1258" />
    <path
       d="m 108.303,63.9999 c -0.2,-2.3 -1.297,-5 -3.69,-5.7 -1.296,-0.4 -2.094,0.3 -3.092,0.7 -0.199,4.5 -0.498,8.5 -0.997,12 4.189,-0.1 8.278,-1.9 7.779,-7 z"
       fill="#fcd7b8"
       stroke="#000000"
       stroke-width="1.0195"
       stroke-miterlimit="10"
       id="path1260" />
    <path
       d="M 43.2805,59.1 C 42.3829,58.6 41.5851,58 40.189,58.4 37.8952,59 36.7982,61.7 36.5988,64 c -0.4986,5.1 3.5902,6.9 7.679,7 -0.4987,-3.4 -0.7979,-7.4 -0.9973,-11.9 z"
       fill="#fcd7b8"
       stroke="#000000"
       stroke-width="1.0195"
       stroke-miterlimit="10"
       id="path1262" />
  </g>
  <defs
     id="defs1291">
    <filter
       id="filter0_dd"
       x="0"
       y="0"
       width="144"
       height="144"
       filterUnits="userSpaceOnUse"
       color-interpolation-filters="sRGB">
      <feFlood
         flood-opacity="0"
         result="BackgroundImageFix"
         id="feFlood1266" />
      <feColorMatrix
         in="SourceAlpha"
         type="matrix"
         values="0 0 0 0 0 0 0 0 0 0 0 0 0 0 0 0 0 0 127 0"
         id="feColorMatrix1268" />
      <feOffset
         dx="1"
         dy="1"
         id="feOffset1270" />
      <feGaussianBlur
         stdDeviation="1.5"
         id="feGaussianBlur1272" />
      <feColorMatrix
         type="matrix"
         values="0 0 0 0 0.368627 0 0 0 0 0.407843 0 0 0 0 0.47451 0 0 0 0.945 0"
         id="feColorMatrix1274" />
      <feBlend
         mode="normal"
         in2="BackgroundImageFix"
         result="effect1_dropShadow"
         id="feBlend1276" />
      <feColorMatrix
         in="SourceAlpha"
         type="matrix"
         values="0 0 0 0 0 0 0 0 0 0 0 0 0 0 0 0 0 0 127 0"
         id="feColorMatrix1278" />
      <feOffset
         dx="-1"
         dy="-1"
         id="feOffset1280" />
      <feGaussianBlur
         stdDeviation="2"
         id="feGaussianBlur1282" />
      <feColorMatrix
         type="matrix"
         values="0 0 0 0 1 0 0 0 0 1 0 0 0 0 1 0 0 0 1 0"
         id="feColorMatrix1284" />
      <feBlend
         mode="normal"
         in2="effect1_dropShadow"
         result="effect2_dropShadow"
         id="feBlend1286" />
      <feBlend
         mode="normal"
         in="SourceGraphic"
         in2="effect2_dropShadow"
         result="shape"
         id="feBlend1288" />
    </filter>
  </defs>
</svg>

<svg width="144" height="144" viewBox="0 0 144 144" fill="none" xmlns="http://www.w3.org/2000/svg">
<g filter="url(#filter0_dd)">
<path fill-rule="evenodd" clip-rule="evenodd" d="M72.5 140C109.779 140 140 109.779 140 72.5C140 35.2208 109.779 5 72.5 5C35.2208 5 5 35.2208 5 72.5C5 109.779 35.2208 140 72.5 140Z" fill="#DDE1E7"/>
</g>
<mask id="mask0" mask-type="alpha" maskUnits="userSpaceOnUse" x="4" y="4" width="137" height="137">
<path fill-rule="evenodd" clip-rule="evenodd" d="M72.5 140C109.779 140 140 109.779 140 72.5C140 35.2208 109.779 5 72.5 5C35.2208 5 5 35.2208 5 72.5C5 109.779 35.2208 140 72.5 140Z" fill="white" stroke="#4A4A4A"/>
</mask>
<g mask="url(#mask0)">
<path d="M104.512 67.8H40.4877C40.4877 67.8 29.8169 112.5 41.4849 117.4C48.4658 120.4 54.25 116.5 72.5 116.5C90.75 116.5 96.5341 120.3 103.515 117.4C115.283 112.5 104.512 67.8 104.512 67.8Z" fill="#3D2011"/>
<path d="M83.2726 101.7C77.289 98.5999 78.386 94.2 78.386 94.2H66.6183C66.6183 94.2 67.7153 98.5999 61.7317 101.7C54.0527 105.7 45.8751 106.3 49.2658 144.5C70.6073 144.5 74.397 144.5 95.7385 144.5C99.1292 106.3 90.9516 105.7 83.2726 101.7Z" fill="#FCD7B8" stroke="black" stroke-width="1.0195" stroke-miterlimit="10"/>
<path d="M72.5022 11.7001C70.5076 11.6001 43.0828 11.1001 43.0828 44.8001C43.0828 85.7001 47.371 95.2001 72.5022 95.2001C97.6333 95.2001 101.922 85.7001 101.922 44.8001C101.922 11.1001 74.5964 11.6001 72.5022 11.7001Z" fill="#FCD7B8" stroke="black" stroke-width="1.0195" stroke-miterlimit="10"/>
<path d="M86.5632 55.7001C87.2613 54.9001 89.0564 52.8001 92.2477 56.2001" stroke="black" stroke-width="1.0195" stroke-miterlimit="10" stroke-linecap="round" stroke-linejoin="round"/>
<path d="M58.4391 55.7001C57.741 54.9001 55.9459 52.8001 52.7546 56.2001" stroke="black" stroke-width="1.0195" stroke-miterlimit="10" stroke-linecap="round" stroke-linejoin="round"/>
<path d="M68.0125 78.1001H76.8881" stroke="black" stroke-width="1.0195" stroke-miterlimit="10" stroke-linecap="round" stroke-linejoin="round"/>
<path d="M89.655 60.7C88.6577 60.7 87.8599 61.4999 87.3613 62.0999C87.1618 62.3999 87.1618 62.6999 87.3613 62.9999C87.7602 63.4999 88.6577 64.3999 89.655 64.3999C91.0512 64.3999 92.2479 62.5999 92.2479 62.5999C92.2479 62.5999 91.0512 60.7 89.655 60.7Z" fill="#61584F" stroke="black" stroke-width="0.5" stroke-miterlimit="10" stroke-linecap="round" stroke-linejoin="round"/>
<path d="M89.7551 64.2999C90.5261 64.2999 91.1512 63.4941 91.1512 62.4999C91.1512 61.5058 90.5261 60.7 89.7551 60.7C88.984 60.7 88.3589 61.5058 88.3589 62.4999C88.3589 63.4941 88.984 64.2999 89.7551 64.2999Z" fill="black"/>
<path d="M88.8576 62.5C89.1881 62.5 89.456 62.2314 89.456 61.9C89.456 61.5687 89.1881 61.3 88.8576 61.3C88.5272 61.3 88.2593 61.5687 88.2593 61.9C88.2593 62.2314 88.5272 62.5 88.8576 62.5Z" fill="#DDDFE2"/>
<path d="M55.2479 60.7C56.2452 60.7 57.043 61.4999 57.5416 62.0999C57.7411 62.3999 57.7411 62.6999 57.5416 62.9999C57.1427 63.4999 56.2452 64.3999 55.2479 64.3999C53.8517 64.3999 52.655 62.5999 52.655 62.5999C52.655 62.5999 53.8517 60.7 55.2479 60.7Z" fill="#61584F" stroke="black" stroke-width="0.5" stroke-miterlimit="10" stroke-linecap="round" stroke-linejoin="round"/>
<path d="M55.1486 64.2999C55.9197 64.2999 56.5448 63.4941 56.5448 62.4999C56.5448 61.5058 55.9197 60.7 55.1486 60.7C54.3775 60.7 53.7524 61.5058 53.7524 62.4999C53.7524 63.4941 54.3775 64.2999 55.1486 64.2999Z" fill="black"/>
<path d="M56.146 62.5C56.4764 62.5 56.7443 62.2314 56.7443 61.9C56.7443 61.5687 56.4764 61.3 56.146 61.3C55.8155 61.3 55.5476 61.5687 55.5476 61.9C55.5476 62.2314 55.8155 62.5 56.146 62.5Z" fill="#DDDFE2"/>
<path d="M71.903 10.5001C40.0901 5.30009 37.4973 51.8001 39.9904 60.2001C41.2869 63.9001 40.4891 67.8001 40.4891 67.8001H43.4809C43.4809 67.8001 43.2814 65.4001 43.6803 63.9001C44.6776 60.1001 47.1707 54.1001 52.7554 44.5001C64.7227 24.1001 72.3019 22.2001 71.7035 19.9001C71.0054 17.7001 72.6011 12.7001 72.6011 12.7001C73.6981 14.5001 72.1024 18.8001 74.3962 21.3001C97.2336 46.3001 101.322 64.1001 101.422 64.5001C101.522 65.0001 101.721 67.7001 101.721 67.7001H104.713C104.713 67.7001 106.109 62.4001 106.01 58.8001C107.605 1.60009 71.903 10.5001 71.903 10.5001Z" fill="#3D2011"/>
<path d="M83.2709 101.7C83.1712 101.7 83.1712 101.6 83.0715 101.6C81.2764 105.1 77.1876 107.6 72.4007 107.6C67.6138 107.6 63.525 105.1 61.7299 101.6C61.6302 101.6 61.6302 101.7 61.5305 101.7C53.8515 105.7 45.6739 106.3 49.0646 144.5C70.4062 144.5 74.1958 144.5 95.5373 144.5C99.1275 106.3 90.9499 105.7 83.2709 101.7Z" fill="#B2C7C7" stroke="black" stroke-width="1.0195" stroke-miterlimit="10"/>
<path d="M88.2578 117.4C87.8589 122.4 87.3602 129.9 87.2605 144.5" stroke="black" stroke-width="1.0195" stroke-miterlimit="10" stroke-linecap="round" stroke-linejoin="round"/>
<path d="M56.7449 117.4C57.1438 122.4 57.6424 129.9 57.7421 144.5" stroke="black" stroke-width="1.0195" stroke-miterlimit="10" stroke-linecap="round" stroke-linejoin="round"/>
<path d="M71.7028 61.3999C71.4036 64.2999 69.6085 67.9999 71.7028 68.3999C73.7971 68.7999 75.8913 68.3999 75.8913 68.3999" stroke="black" stroke-width="1.0195" stroke-miterlimit="10" stroke-linecap="round" stroke-linejoin="round"/>
<path d="M108.303 63.9999C108.103 61.6999 107.006 58.9999 104.613 58.2999C103.317 57.8999 102.519 58.5999 101.521 58.9999C101.322 63.4999 101.023 67.4999 100.524 70.9999C104.713 70.8999 108.802 69.0999 108.303 63.9999Z" fill="#FCD7B8" stroke="black" stroke-width="1.0195" stroke-miterlimit="10"/>
<path d="M43.2805 59.1C42.3829 58.6 41.5851 58 40.189 58.4C37.8952 59 36.7982 61.7 36.5988 64C36.1002 69.1 40.189 70.9 44.2778 71C43.7791 67.6 43.4799 63.6 43.2805 59.1Z" fill="#FCD7B8" stroke="black" stroke-width="1.0195" stroke-miterlimit="10"/>
</g>
<defs>
<filter id="filter0_dd" x="0" y="0" width="144" height="144" filterUnits="userSpaceOnUse" color-interpolation-filters="sRGB">
<feFlood flood-opacity="0" result="BackgroundImageFix"/>
<feColorMatrix in="SourceAlpha" type="matrix" values="0 0 0 0 0 0 0 0 0 0 0 0 0 0 0 0 0 0 127 0"/>
<feOffset dx="1" dy="1"/>
<feGaussianBlur stdDeviation="1.5"/>
<feColorMatrix type="matrix" values="0 0 0 0 0.368627 0 0 0 0 0.407843 0 0 0 0 0.47451 0 0 0 0.945 0"/>
<feBlend mode="normal" in2="BackgroundImageFix" result="effect1_dropShadow"/>
<feColorMatrix in="SourceAlpha" type="matrix" values="0 0 0 0 0 0 0 0 0 0 0 0 0 0 0 0 0 0 127 0"/>
<feOffset dx="-1" dy="-1"/>
<feGaussianBlur stdDeviation="2"/>
<feColorMatrix type="matrix" values="0 0 0 0 1 0 0 0 0 1 0 0 0 0 1 0 0 0 1 0"/>
<feBlend mode="normal" in2="effect1_dropShadow" result="effect2_dropShadow"/>
<feBlend mode="normal" in="SourceGraphic" in2="effect2_dropShadow" result="shape"/>
</filter>
</defs>
</svg>
